X:767
T:Barren Rocks of Aden, The
S:Sessions etc
Z:Nigel Gatherer
M:2/4
L:1/8
K:D
e    | f>g fe | df Ad    | ce  Ad/e/ | fA de |
       f>g fe | df Ad    | ce  Af/e/ | d2 d :|
f/g/ | a>f df | ef Ae/f/ | g>e ce    | df A
f/g/ | a>f df | ef Ae/f/ | ge  cA    | d2 d :|]
<end>
<start>
